X: 2000
T: Colored Aristocracy
B: steve tunes
M:2/4
L:1/8
R: Cakewalk or March
Q: 1/4=120
K:G
V:1 
(3DEF |:"G"G2GA GED2 | G6 GA | B2Bc BAG2 | "Em"E6 AB | "C"cBcd e2dc |
"G"BABc d2cB |[1 "A"A2AB"A7" c2 ^c2 | "D"d6 (3DEF :|[2 "A7"BABd- "D7"dBA2 | "G"G6 ef ||
|:"G"g2ga ged2 | "Em"e6 ^d2 | e2eg e2d2 | B6 AB | "C"c2cd e2dc |
"G"BABc d2cB |  [1 "A"A2B2 "A7"c2^c2 | "D"d2^d2 "D7"e2f2 :|[2 "D"BABd- dBA2 | "G"G4 |]
% abcbook-tune_id 6298c245da09f3cc361f3da2


% abcbook-boost 4
% abcbook-tablature 
% abcbook-transpose 
% abcbook-lastupdated 1655260255842
% abcbook-soundfonts 
% abcbook-repeats 3


